!!!!SEGMENT: mpm340-Fuji-Ko_M.krn
!!!COM: Harry Rowe Shhelly
!!!OTL: Fuji-Ko
!!!OPR:Motion Picture Moods for Pianists and Organists 
!!!YOY:1924
!!!ONB: National
**kern	**dynam
*>[A,A1,B,B1,B,B2,C,D,D1,D,D2,E,F]	*>[A,A1,B,B1,B,B2,C,D,D1,D,D2,E,F]
*clefG2	*
*k[]	*
*C:	*
*M2/2	*
*met(c|)	*
*>A	*>A
=1	=1
!LO:TX:a:B:t=Allegretto	!
8a-X'L	p
8a-'	.
8a-'	.
8a-'J	.
8a-L	.
8r	.
8cc	.
8a-J	.
=2	=2
2.g	.
8r	.
(24a-XLL	.
24cc	.
24a-JJ	.
=3	=3
4g)	.
8r	.
(24a-XLL	.
24cc	.
24a-JJ)	.
4g	.
8r	.
(24a-LL	.
24cc	.
24a-JJ	.
=4	=4
4g)	f
4r	.
4ff^	.
4r	.
=5	=5
8G'L	p
8A'	.
8B'	.
8c'J	.
8d'L	.
8e'	.
8d'	.
8c'J	.
=6	=6
8dL	.
8eJ	.
2g^	.
8eL	.
8gJ	.
=7	=7
8aL	.
8bJ	.
4.a^	.
8gL	.
8e	.
8gJ	.
=8	=8
8aL	.
8bJ	.
2.a^	.
=9	=9
8aL	p
8a	.
8a	.
8aJ	.
4a'	.
4dd'	.
=10	=10
4a'	.
4dd'	.
2a^	.
=11	=11
(8aL	.
8ccJ	.
2g)	.
4e	.
=12	=12
8d^L	>
8e	.
8d	.
8AJ	.
8d^L	.
8e	.
8d	.
8BJ	]
=13	=13
8G'L	p
8A'	.
8B'	.
8c'J	.
8d'L	.
8e'	.
8d'	.
8c'J	.
=14	=14
8dL	.
8eJ	.
2g^	.
8eL	.
8gJ	.
=15	=15
8aL	.
8bJ	.
4.a^	.
8gL	.
8e	.
8gJ	.
=16	=16
8aL	.
8bJ	.
2.a^	.
=17	=17
8ddL	.
8dd	.
8dd	.
8ddJ	.
4dd	.
4ff	.
=18	=18
4dd	.
4ff	.
2a^	.
=19	=19
(8aL	.
8ccJ	.
4g)	.
(8aL	.
8ccJ	.
4g)	.
=20	=20
4d	.
8dL	.
8eJ	.
4c	.
8r	.
*>A1	*>A1
!LO:TX:a:t=[coda]	!
(8ee	.
*>B	*>B
=21!|:	=21!|:
4.gg	.
8ee	.
4.cc	.
8ee	.
=22	=22
8ddL	.
8cc	.
8dd	.
8eeJ	.
4dd')	.
4ee'	.
=23	=23
(8qee/	.
(2a)	.
4g')	.
4cc'	.
=24	=24
(8qee/	.
(2a)	.
2g)	.
=25	=25
8gL	.
8g	.
8g	.
8gJ	.
4g'	.
4g'	.
=26	=26
8gL	.
8gJ	.
4g'	.
2g^	.
=27	=27
8gL	.
8g	.
8g	.
8gJ	.
4g'	.
4g'	.
=28	=28
8gL	.
8gJ	.
4g'	.
4.g^	.
(8ee	.
=29	=29
4.gg	.
8ee	.
4.cc	.
8ee	.
=30	=30
8ddL	.
8cc	.
8dd	.
8eeJ	.
4dd')	.
4ee'	.
=31	=31
(8qee/	.
(2a)	.
4g')	.
4cc'	.
=32	=32
(8qee/	.
(2a)	.
2g)	.
=33	=33
8bL	.
8b	.
8b	.
8bJ	.
4b'	.
4b'	.
=34	=34
8bL	.
8bJ	.
4b'	.
2b	.
=35	=35
8bL	.
8bJ	.
4b^	.
8bL	.
8bJ	.
4b^	<
*>B1	*>B1
=36	=36
8eL	.
8f	.
8f#X	.
8gJ	.
4.a^	[
(8ee	.
*>B2	*>B2
=37:|!	=37:|!
8eL)	<
8f	.
8f#X	.
8gJ	.
2a^	[
*>C	*>C
=38	=38
8G'L	p
8A'	.
8B'	.
8c'J	.
8d'L	.
8e'	.
8d'	.
8c'J	.
=39	=39
8dL	.
8eJ	.
2g^	.
8eL	.
8gJ	.
=40	=40
8aL	.
8bJ	.
4.a^	.
8gL	.
8e	.
8gJ	.
=41	=41
8aL	.
8bJ	.
2.a^	.
=42	=42
8a'L	.
8a'	.
8a'	.
8a'J	.
4a'	.
4dd'	.
=43	=43
4a'	.
4dd'	.
2a^	.
=44	=44
(8aL	.
8ccJ	.
2g	.
4e)	.
=45	=45
8d^L	.
8e	>
8d	.
8AJ	.
8d^L	.
8e	.
8d	.
8BJ	]]
=46	=46
8G'L	.
8A'	.
8B'	.
8c'J	.
8d'L	.
8e'	.
8d'	.
8c'J	.
=47	=47
8dL	.
8eJ	.
2g^	.
8eL	.
8gJ	.
=48	=48
8aL	.
8bJ	.
4.a^	.
8gL	.
8e	.
8gJ	.
=49	=49
8aL	.
8bJ	.
2.a	.
=50	=50
8ddL	.
8dd	.
8dd	.
8ddJ	.
4dd	.
4ff	.
=51	=51
4dd	.
4ff	.
2a^	.
=52	=52
8aL	.
8ccJ	.
4g	.
8aL	.
8ccJ	.
4g	.
=53	=53
4d	.
8dL	.
8eJ	.
4c	.
4r	.
*>D	*>D
=54!|:	=54!|:
!LO:TX:a:B:t=Cantabile	!
(4.g	f
8e)	.
(4.d	.
8a)	.
=55	=55
(4.g	.
8e)	.
(4.d	.
8a)	.
=56	=56
4.g	.
8e	.
4.d	.
8e	.
=57	=57
2.A	.
4B	.
=58	=58
2e	.
[2G	.
=59	=59
4G]	.
12eL	.
12f	.
12eJ	.
4d#X	.
4e	.
=60	=60
2g	.
6a	.
6e	.
6a	.
=61	=61
2.b	.
4a	.
=62	=62
4.g	.
8e	.
4.d	.
8a	.
=63	=63
4.g	.
8e	.
4.d	.
8a	.
=64	=64
4.g	.
8e	.
4.d	.
8e	.
=65	=65
2.A	.
4c	.
=66	=66
4.B	.
8d	.
4.f	.
8a	.
=67	=67
4.f#X	.
8g	.
4.cc	.
8e	.
=68	=68
4.f	.
8g	.
4.a	.
8B	.
*>D1	*>D1
=69	=69
4.c	.
8d	.
4.e	.
8f	.
*>D2	*>D2
=70:|!	=70:|!
4.c	>
8d	.
4.e	.
8g	]]
*>E	*>E
=71	=71
(4.f#X	p
8g)	.
(4.e	.
8d)	.
=72	=72
(4.f#X	.
8g)	.
(4.e	.
8d)	.
=73	=73
4.f#X	.
8g	.
4.e	.
8d	.
=74	=74
2.e	.
4d	.
=75	=75
4.f#X	.
8g	.
4.e	.
8d	.
=76	=76
4.f#X	.
8g	.
4.e	.
8d	.
=77	=77
4.f#X	.
8g	.
4.a	.
8d	.
=78	=78
4.g	<
8a	.
4.g	.
8a	[
=79	=79
4.g	f
8e	.
4.d	.
8a	.
=80	=80
4.g	.
8e	.
4.d	.
8a	.
=81	=81
4.g	.
8e	.
4.d	.
8e	.
=82	=82
2.A	.
4c	.
=83	=83
4.B	.
8d	.
4.f	.
8a	.
=84	=84
4.f#X	.
8g	.
4.cc	.
8e	.
=85	=85
4.f	.
8g	.
4.a	.
8B	.
=86	=86
!LO:TX::i:t=D.C. al Coda	!
2.c	.
4r	.
*>F	*>F
=87||	=87||
!LO:TX:a:t=[coda]	!
4ee'	pp
4ee'	.
4ee'	.
4r	.
=88	=88
4gg'	.
4gg'	.
4gg'	.
4r	.
=89	=89
4aa'	.
4r	.
4gg'	.
4r	.
=90	=90
4ccc'	.
4r	.
2r	.
==	==
*-	*-
!!!ENC: Yukiko Yoden
!!!END: 2022/03/21